packages/bezier-icons/icons/cloud-off.svg

<svg width="24" height="24" viewBox="0 0 24 24" fill="none" xmlns="http://www.w3.org/2000/svg">
<path fill-rule="evenodd" clip-rule="evenodd" d="M2.70711 3.79289C2.31658 4.18342 2.31658 4.81658 2.70711 5.20711L19.6777 22.1777C20.0682 22.5682 20.7014 22.5682 21.0919 22.1777C21.4824 21.7871 21.4824 21.154 21.0919 20.7635L18.9904 18.662C21.3258 17.841 23 15.616 23 13C23 9.75286 20.4206 7.10818 17.1989 7.00324C16.1628 5.20939 14.2235 4 12 4C9.91551 4 8.07977 5.06262 7.00435 6.67592L4.12132 3.79289C3.7308 3.40237 3.09763 3.40237 2.70711 3.79289ZM8.46136 8.13294L17.3161 16.9877C19.3775 16.8265 21 15.1027 21 13C21 10.7909 19.2091 9 17 9H15.9296L15.6676 8.40037C15.0494 6.98556 13.6387 6 12 6C10.4654 6 9.13212 6.86458 8.46136 8.13294ZM4.72494 8.72494L6.5 10.5H6.25C4.45507 10.5 3 11.9551 3 13.75C3 15.5449 4.45508 17 6.25 17H13L15 19H6.25C3.35051 19 1 16.6495 1 13.75C1 11.3809 2.56921 9.37832 4.72494 8.72494Z" fill="#313234"/>
</svg>

<svg xmlns="http://www.w3.org/2000/svg" width="24" height="24" fill="none" viewBox="0 0 24 24"><path fill="#313234" fill-rule="evenodd" d="M2.707 3.793a1 1 0 0 0 0 1.414l16.97 16.97a1 1 0 0 0 1.415-1.413l-2.102-2.102a6 6 0 0 0-1.792-11.659A6 6 0 0 0 12 4a6 6 0 0 0-4.996 2.676L4.121 3.793a1 1 0 0 0-1.414 0m5.754 4.34 8.855 8.855A4 4 0 0 0 17 9h-1.07l-.262-.6a4.001 4.001 0 0 0-7.207-.267m-3.736.592L6.5 10.5h-.25a3.25 3.25 0 0 0 0 6.5H13l2 2H6.25A5.25 5.25 0 0 1 4.725 8.725" clip-rule="evenodd"/></svg>
